src/components/Home/Steps/assets/step-advert.svg

<svg width="63" height="91" viewBox="0 0 63 91" fill="none" xmlns="http://www.w3.org/2000/svg">
<path d="M58.9851 3.14062C59.5075 3.14062 60.0182 3.29561 60.4526 3.58597C60.8869 3.87632 61.2254 4.28901 61.4253 4.77186C61.6252 5.2547 61.6776 5.78601 61.5757 6.2986C61.4737 6.81118 61.2222 7.28202 60.8528 7.65157C60.4834 8.02113 60.0127 8.2728 59.5003 8.37476C58.988 8.47672 58.4569 8.42439 57.9743 8.22439C57.4916 8.02439 57.0791 7.6857 56.7889 7.25115C56.4986 6.8166 56.3438 6.3057 56.3438 5.78308C56.3438 5.08225 56.622 4.41013 57.1173 3.91458C57.6127 3.41902 58.2846 3.14062 58.9851 3.14062Z" fill="#988FDC"/>
<path d="M45.5007 5.28027C46.0231 5.28027 46.5338 5.43526 46.9682 5.72561C47.4025 6.01597 47.7411 6.42866 47.941 6.9115C48.1409 7.39435 48.1932 7.92566 48.0913 8.43824C47.9893 8.95083 47.7378 9.42167 47.3684 9.79122C46.999 10.1608 46.5284 10.4125 46.016 10.5144C45.5037 10.6164 44.9725 10.564 44.4899 10.364C44.0073 10.164 43.5947 9.82535 43.3045 9.3908C43.0143 8.95625 42.8594 8.44535 42.8594 7.92272C42.8594 7.2219 43.1376 6.5498 43.633 6.05425C44.1283 5.55869 44.8002 5.28027 45.5007 5.28027Z" fill="#988FDC"/>
<path d="M32.0281 1C32.5505 1 33.0611 1.15497 33.4955 1.44532C33.9299 1.73568 34.2684 2.14839 34.4684 2.63124C34.6683 3.11408 34.7206 3.64539 34.6187 4.15798C34.5168 4.67057 34.2652 5.14141 33.8958 5.51096C33.5264 5.88052 33.0557 6.13217 32.5434 6.23413C32.031 6.33609 31.4999 6.28378 31.0172 6.08378C30.5346 5.88378 30.1221 5.54509 29.8319 5.11054C29.5417 4.67599 29.3867 4.16509 29.3867 3.64246C29.3867 2.94163 29.665 2.26951 30.1604 1.77396C30.6557 1.2784 31.3275 1 32.0281 1Z" fill="#988FDC"/>
<path d="M7.67322 5.75671C7.67322 6.27934 7.51834 6.79023 7.22811 7.22478C6.93788 7.65933 6.52535 7.99802 6.04271 8.19802C5.56007 8.39802 5.02895 8.45036 4.51659 8.3484C4.00422 8.24644 3.53365 7.99476 3.16425 7.62521C2.79486 7.25565 2.54329 6.78481 2.44137 6.27223C2.33946 5.75964 2.39179 5.22833 2.5917 4.74549C2.79162 4.26264 3.1301 3.84996 3.56446 3.5596C3.99882 3.26924 4.5095 3.11426 5.0319 3.11426C5.73242 3.11426 6.40429 3.39268 6.89964 3.88823C7.39498 4.38379 7.67322 5.05589 7.67322 5.75671Z" fill="#988FDC"/>
<path d="M51.4446 38.1002C52.5184 37.3921 53.4119 36.4427 54.0539 35.3279C54.6959 34.2131 55.0687 32.9635 55.1424 31.679C55.1424 31.5205 55.1424 31.3751 55.1424 31.2166C55.1636 29.059 54.3289 26.9811 52.8213 25.4382C51.3137 23.8953 49.2562 23.0132 47.0996 22.9854C45.2642 22.9886 43.4846 23.6177 42.0547 24.769" stroke="#454545" stroke-width="2" stroke-linecap="round" stroke-linejoin="round"/>
<path d="M24.8306 30.6089C24.7616 29.471 24.47 28.3578 23.9722 27.3323L23.6156 26.6717C22.9571 25.5463 22.0187 24.6105 20.8917 23.9553C19.7647 23.3001 18.4874 22.9478 17.184 22.9326C16.141 22.9617 15.1139 23.1965 14.1619 23.6237C13.2098 24.0508 12.3516 24.6619 11.6362 25.4217C10.9208 26.1816 10.3624 27.0754 9.99317 28.0517C9.62394 29.028 9.4511 30.0677 9.48454 31.111V31.4017" stroke="#454545" stroke-width="2" stroke-linecap="round" stroke-linejoin="round"/>
<path d="M23.9727 27.319C24.2225 25.2903 25.1371 23.4014 26.5735 21.9477C28.01 20.494 29.8873 19.5574 31.9122 19.2842C33.9371 19.011 35.9955 19.4166 37.7656 20.4376C39.5357 21.4586 40.9177 23.0376 41.6959 24.9276C41.8279 25.2844 41.9468 25.6675 42.0525 26.0639C42.2171 26.77 42.3013 27.4924 42.3034 28.2175C42.3033 29.3009 42.1064 30.3754 41.7223 31.3884" stroke="#454545" stroke-width="2" stroke-linecap="round" stroke-linejoin="round"/>
<path d="M15.6 34.0038C14.8318 33.1762 13.9023 32.5148 12.8688 32.0604C11.8354 31.6059 10.7198 31.368 9.59097 31.3613H9.4853C8.36666 31.3657 7.25988 31.5904 6.22806 32.0227C5.19623 32.4549 4.25956 33.0863 3.47163 33.8807C1.88034 35.4851 0.991308 37.6561 1.00006 39.9163C1.00882 42.1764 1.9147 44.3405 3.51838 45.9325C5.12206 47.5245 7.29213 48.4139 9.55131 48.4051H14.4907H23.4711H31.4876H39.5171H48.4845H53.3841C55.4653 48.361 57.4589 47.5582 58.9904 46.1477C60.5219 44.7371 61.486 42.8157 61.7016 40.7443C61.9173 38.6728 61.3696 36.5939 60.1616 34.8979C58.9535 33.2018 57.1681 32.0054 55.1406 31.5331" stroke="#454545" stroke-width="2" stroke-linecap="round" stroke-linejoin="round"/>
<path d="M31.5007 1.62109C32.0231 1.62109 32.5337 1.77606 32.968 2.06642C33.4024 2.35677 33.741 2.76948 33.9409 3.25233C34.1408 3.73517 34.1931 4.26648 34.0912 4.77907C33.9893 5.29165 33.7377 5.76249 33.3683 6.13205C32.9989 6.5016 32.5283 6.75326 32.0159 6.85522C31.5036 6.95718 30.9725 6.90484 30.4899 6.70484C30.0072 6.50484 29.5947 6.16615 29.3045 5.7316C29.0143 5.29705 28.8594 4.78618 28.8594 4.26355C28.8594 3.56272 29.1376 2.8906 29.633 2.39505C30.1283 1.89949 30.8002 1.62109 31.5007 1.62109Z" stroke="#454545" stroke-width="2" stroke-linecap="round" stroke-linejoin="round"/>
<path d="M31.4883 16.1681V9.12598" stroke="#454545" stroke-width="2" stroke-linecap="round" stroke-linejoin="round"/>
<path d="M44.9695 5.90137C45.4919 5.90137 46.0025 6.05635 46.4369 6.34671C46.8713 6.63706 47.2098 7.04975 47.4098 7.53259C47.6097 8.01544 47.662 8.54674 47.5601 9.05933C47.4582 9.57191 47.2066 10.0427 46.8372 10.4123C46.4678 10.7819 45.9971 11.0335 45.4848 11.1355C44.9724 11.2374 44.4414 11.1851 43.9587 10.9851C43.4761 10.7851 43.0636 10.4464 42.7733 10.0119C42.4831 9.57733 42.3281 9.06644 42.3281 8.54381C42.3281 7.84299 42.6064 7.17087 43.1018 6.67532C43.5971 6.17976 44.2689 5.90137 44.9695 5.90137Z" stroke="#454545" stroke-width="2" stroke-linecap="round" stroke-linejoin="round"/>
<path d="M58.4421 3.76172C58.9645 3.76172 59.4752 3.9167 59.9095 4.20706C60.3439 4.49742 60.6824 4.91011 60.8824 5.39296C61.0823 5.87581 61.1346 6.40712 61.0327 6.91971C60.9308 7.4323 60.6792 7.90314 60.3098 8.27269C59.9404 8.64225 59.4698 8.89393 58.9574 8.99589C58.445 9.09785 57.9139 9.04551 57.4313 8.84551C56.9486 8.64551 56.5362 8.30682 56.246 7.87227C55.9557 7.43772 55.8008 6.92682 55.8008 6.40419C55.8008 5.70336 56.0791 5.03124 56.5744 4.53568C57.0698 4.04012 57.7416 3.76172 58.4421 3.76172Z" stroke="#454545" stroke-width="2" stroke-linecap="round" stroke-linejoin="round"/>
<path d="M18.0007 5.90137C17.4783 5.90137 16.9676 6.05635 16.5332 6.34671C16.0989 6.63706 15.7603 7.04975 15.5604 7.53259C15.3605 8.01544 15.3082 8.54674 15.4101 9.05933C15.5121 9.57191 15.7636 10.0427 16.133 10.4123C16.5024 10.7819 16.973 11.0335 17.4854 11.1355C17.9977 11.2374 18.5289 11.1851 19.0115 10.9851C19.4941 10.7851 19.9067 10.4464 20.1969 10.0119C20.4871 9.57733 20.642 9.06644 20.642 8.54381C20.642 7.84299 20.3638 7.17087 19.8684 6.67532C19.3731 6.17976 18.7012 5.90137 18.0007 5.90137Z" stroke="#454545" stroke-width="2" stroke-linecap="round" stroke-linejoin="round"/>
<path d="M4.53193 3.76172C4.00953 3.76172 3.49884 3.9167 3.06448 4.20706C2.63011 4.49742 2.29162 4.91011 2.09171 5.39296C1.89179 5.87581 1.83946 6.40712 1.94137 6.91971C2.04329 7.4323 2.29486 7.90314 2.66426 8.27269C3.03366 8.64225 3.50432 8.89393 4.01669 8.99589C4.52906 9.09785 5.06011 9.04551 5.54275 8.84551C6.02539 8.64551 6.43793 8.30682 6.72816 7.87227C7.0184 7.43772 7.17328 6.92682 7.17328 6.40419C7.17328 5.70336 6.89504 5.03124 6.39969 4.53568C5.90434 4.04012 5.23246 3.76172 4.53193 3.76172Z" stroke="#454545" stroke-width="2" stroke-linecap="round" stroke-linejoin="round"/>
<path d="M58.4431 11.2656V19.3647L54.7188 23.1038" stroke="#454545" stroke-width="2" stroke-linecap="round" stroke-linejoin="round"/>
<path d="M44.957 13.4062V17.2907L42.1836 20.0917" stroke="#454545" stroke-width="2" stroke-linecap="round" stroke-linejoin="round"/>
<path d="M4.53125 11.2656V20.0518L8.73096 24.2929" stroke="#454545" stroke-width="2" stroke-linecap="round" stroke-linejoin="round"/>
<path d="M18.0156 13.4062V16.2072L23.0738 21.3072" stroke="#454545" stroke-width="2" stroke-linecap="round" stroke-linejoin="round"/>
<path d="M40.2946 68.3691H19.1641V89.5088H40.2946V68.3691Z" fill="#B69538"/>
<path d="M40.2946 68.3691H19.1641V89.5088H40.2946V68.3691Z" stroke="#515151" stroke-width="2" stroke-linecap="round" stroke-linejoin="round"/>
<path d="M31.0515 56.4785C31.0515 56.7398 30.974 56.9952 30.8289 57.2125C30.6838 57.4298 30.4775 57.5991 30.2362 57.6991C29.9949 57.7991 29.7294 57.8253 29.4732 57.7743C29.217 57.7233 28.9817 57.5975 28.797 57.4127C28.6123 57.2279 28.4865 56.9925 28.4355 56.7362C28.3846 56.4799 28.4107 56.2143 28.5107 55.9729C28.6106 55.7314 28.7799 55.5251 28.9971 55.3799C29.2143 55.2347 29.4696 55.1572 29.7308 55.1572C30.0811 55.1572 30.417 55.2964 30.6646 55.5442C30.9123 55.792 31.0515 56.1281 31.0515 56.4785Z" fill="#515151"/>
<path d="M32.3711 53.7305L47.0569 64.5645C47.8001 65.3071 48.2181 66.3146 48.2191 67.3655V77.6182C48.2176 79.0084 47.8509 80.3738 47.1554 81.5773C46.46 82.7809 45.4605 83.7803 44.2571 84.4754" stroke="#515151" stroke-width="2" stroke-linecap="round" stroke-linejoin="round"/>
<path d="M33.8907 64.4061L29.625 61.7637" stroke="#515151" stroke-width="2" stroke-linecap="round" stroke-linejoin="round"/>
<path d="M29.7305 48.5508V52.5145" stroke="#515151" stroke-width="2" stroke-linecap="round" stroke-linejoin="round"/>
<path d="M24.7526 64.4057L32.3728 59.0151C33.0353 58.3066 33.3965 57.3684 33.3803 56.3984C33.3642 55.4285 32.9718 54.5028 32.2862 53.8168C31.6005 53.1309 30.6752 52.7384 29.7057 52.7222C28.7362 52.706 27.7983 53.0675 27.0902 53.7302L12.4044 64.5642C12.0348 64.9335 11.7418 65.3723 11.5424 65.8552C11.3429 66.3382 11.2409 66.8559 11.2422 67.3784V77.6179C11.2436 79.0081 11.6104 80.3735 12.3058 81.577C13.0012 82.7806 14.0008 83.78 15.2042 84.4751" stroke="#515151" stroke-width="2" stroke-linecap="round" stroke-linejoin="round"/>
<path d="M22.2151 75.9573L22.1895 74.874H23.3325L23.3069 75.9573L23.1704 79.3523L22.343 79.4035L22.2151 75.9573ZM22.7439 81.0839C22.5222 81.0839 22.3629 81.0412 22.2663 80.9559C22.1753 80.8649 22.1298 80.7085 22.1298 80.4868C22.1298 80.265 22.1753 80.1058 22.2663 80.0091C22.3629 79.9067 22.5193 79.8555 22.7354 79.8555C22.9572 79.8555 23.1164 79.901 23.2131 79.992C23.3098 80.0773 23.3581 80.228 23.3581 80.4441C23.3581 80.6716 23.3126 80.8365 23.2216 80.9389C23.1306 81.0355 22.9714 81.0839 22.7439 81.0839ZM24.4251 76.9127C24.408 76.7023 24.3711 76.3156 24.3142 75.7526C24.2573 75.1726 24.2289 74.7802 24.2289 74.5755H25.4146C25.4146 74.7859 25.3947 75.1043 25.3549 75.5308C25.3151 75.9516 25.2895 76.2218 25.2781 76.3412C25.2724 76.4151 25.2639 76.5004 25.2525 76.5971C25.2411 76.6938 25.2298 76.799 25.2184 76.9127H24.4251ZM26.0287 76.9127C26.0117 76.7023 25.9747 76.3156 25.9178 75.7526C25.861 75.1726 25.8325 74.7802 25.8325 74.5755H27.0182C27.0182 74.7859 26.9983 75.1043 26.9585 75.5308C26.9187 75.9516 26.8931 76.2218 26.8817 76.3412C26.876 76.4151 26.8675 76.5004 26.8561 76.5971C26.8448 76.6938 26.8334 76.799 26.822 76.9127H26.0287Z" fill="#515151"/>
</svg>

<svg width="63" height="91" fill="none" xmlns="http://www.w3.org/2000/svg"><path d="M58.985 3.14a2.64 2.64 0 0 1 1.868 4.512 2.641 2.641 0 1 1-3.736-3.737 2.641 2.641 0 0 1 1.868-.774zM45.501 5.28a2.64 2.64 0 0 1 1.867 4.511 2.64 2.64 0 0 1-4.509-1.868 2.643 2.643 0 0 1 2.642-2.643zM32.028 1a2.64 2.64 0 0 1 2.59 3.158 2.643 2.643 0 0 1-4.786.953A2.644 2.644 0 0 1 32.028 1zM7.673 5.757a2.643 2.643 0 0 1-3.156 2.591 2.64 2.64 0 0 1-1.925-3.603 2.642 2.642 0 0 1 5.081 1.012z" fill="#988FDC"/><path d="M51.445 38.1a8.256 8.256 0 0 0 3.697-6.421v-.462a8.153 8.153 0 0 0-8.042-8.232 8.067 8.067 0 0 0-5.045 1.784m-17.224 5.84a8.71 8.71 0 0 0-.859-3.277l-.356-.66a7.556 7.556 0 0 0-6.432-3.74 7.921 7.921 0 0 0-7.19 5.12 7.93 7.93 0 0 0-.51 3.059v.29m14.489-4.082a9.25 9.25 0 0 1 7.94-8.035 9.242 9.242 0 0 1 9.783 5.644c.132.356.25.74.357 1.136.164.706.248 1.428.25 2.154a8.946 8.946 0 0 1-.58 3.17" stroke="#454545" stroke-width="2" stroke-linecap="round" stroke-linejoin="round"/><path d="M15.6 34.004a8.266 8.266 0 0 0-6.009-2.643h-.106a8.516 8.516 0 0 0-6.013 2.52 8.524 8.524 0 0 0 6.08 14.524h43.832a8.543 8.543 0 0 0 8.318-7.66 8.551 8.551 0 0 0-6.561-9.212M31.5 1.621a2.64 2.64 0 0 1 2.59 3.158 2.643 2.643 0 0 1-4.787.953 2.643 2.643 0 0 1 2.197-4.11zm-.013 14.547V9.126M44.97 5.901A2.64 2.64 0 0 1 47.56 9.06a2.643 2.643 0 0 1-3.601 1.926 2.642 2.642 0 0 1 1.01-5.084zm13.473-2.14a2.64 2.64 0 0 1 2.59 3.159 2.643 2.643 0 0 1-4.786.952 2.643 2.643 0 0 1 2.196-4.11zm-40.441 2.14a2.64 2.64 0 0 0-1.868 4.511 2.64 2.64 0 1 0 3.735-3.737 2.64 2.64 0 0 0-1.867-.774zM4.53 3.761a2.64 2.64 0 0 0-2.59 3.159 2.643 2.643 0 0 0 4.787.952 2.643 2.643 0 0 0-2.196-4.11zm53.912 7.505v8.099l-3.724 3.739m-9.762-9.698v3.885l-2.773 2.8M4.53 11.267v8.786l4.2 4.24m9.285-10.886v2.801l5.058 5.1" stroke="#454545" stroke-width="2" stroke-linecap="round" stroke-linejoin="round"/><path d="M40.295 68.37h-21.13v21.139h21.13v-21.14z" fill="#B69538"/><path d="M40.295 68.37h-21.13v21.139h21.13v-21.14z" stroke="#515151" stroke-width="2" stroke-linecap="round" stroke-linejoin="round"/><path d="M31.052 56.478a1.322 1.322 0 1 1-2.644 0 1.322 1.322 0 0 1 2.643 0z" fill="#515151"/><path d="M32.371 53.73l14.686 10.834a3.965 3.965 0 0 1 1.162 2.802v10.252a7.93 7.93 0 0 1-3.962 6.857M33.891 64.406l-4.266-2.642m.105-13.213v3.963" stroke="#515151" stroke-width="2" stroke-linecap="round" stroke-linejoin="round"/><path d="M24.753 64.406l7.62-5.39a3.74 3.74 0 0 0-2.667-6.294 3.736 3.736 0 0 0-2.616 1.008L12.404 64.564a3.964 3.964 0 0 0-1.162 2.814v10.24a7.93 7.93 0 0 0 3.962 6.857" stroke="#515151" stroke-width="2" stroke-linecap="round" stroke-linejoin="round"/><path d="M22.215 75.957l-.026-1.083h1.143l-.025 1.083-.137 3.395-.827.051-.128-3.446zm.529 5.127c-.222 0-.381-.043-.478-.128-.09-.091-.136-.248-.136-.47 0-.221.045-.38.136-.477.097-.102.253-.153.47-.153.221 0 .38.045.477.136.097.085.145.236.145.452 0 .228-.045.392-.136.495-.091.097-.25.145-.478.145zm1.681-4.171c-.017-.21-.054-.597-.11-1.16-.058-.58-.086-.973-.086-1.177h1.186c0 .21-.02.528-.06.955a1254.665 1254.665 0 0 1-.102 1.066c-.012.097-.023.202-.035.316h-.793zm1.604 0c-.017-.21-.054-.597-.111-1.16-.057-.58-.085-.973-.085-1.177h1.185c0 .21-.02.528-.06.955a1254.665 1254.665 0 0 1-.102 1.066c-.011.097-.023.202-.034.316h-.793z" fill="#515151"/></svg>
